dist/images/iconos/trabajador.svg

<?xml version="1.0" encoding="UTF-8"?>
<svg width="20px" height="20px" viewBox="0 0 20 20" version="1.1" xmlns="http://www.w3.org/2000/svg" xmlns:xlink="http://www.w3.org/1999/xlink">
    <!-- Generator: Sketch 49.2 (51160) - http://www.bohemiancoding.com/sketch -->
    <title>Group</title>
    <desc>Created with Sketch.</desc>
    <defs></defs>
    <g id="Page-1" stroke="none" stroke-width="1" fill="none" fill-rule="evenodd">
        <g id="Group" fill="#000000" fill-rule="nonzero">
            <path d="M13.9176923,11.3475556 C13.8920513,12.3675556 12.1479487,13.1904444 10,13.1904444 C7.85153846,13.1904444 6.10769231,12.3675556 6.08230769,11.3475556 C2.79564103,11.608 0.221282051,14.0022222 0.221282051,16.918 C0.221282051,20.0077778 3.11153846,20 6.67615385,20 L13.3238462,20 C16.8884615,20 19.7787179,20.0077778 19.7787179,16.918 C19.7787179,14.0022222 17.2048718,11.608 13.9176923,11.3475556 Z" id="Shape"></path>
            <path d="M10,11.1717778 C7.81948718,11.1717778 6.01769231,9.12311111 5.72820513,6.46377778 L5.13538462,6.46377778 C5.46487179,9.49266667 7.51641026,11.8264444 10,11.8264444 C12.4830769,11.8264444 14.5353846,9.49266667 14.8646154,6.464 L14.2715385,6.464 C13.9817949,9.12333333 12.1805128,11.1717778 10,11.1717778 Z" id="Shape"></path>
            <path d="M4.90384615,5.83377778 L15.0958974,5.83377778 C15.4933333,5.83377778 15.8148718,5.55488889 15.8148718,5.21088889 C15.8148718,4.86666667 15.4933333,4.58777778 15.0958974,4.58777778 L14.9002564,4.58777778 C14.9002564,2.93266667 13.8064103,1.49977778 12.2125641,0.798888889 L11.8064103,2.79422222 C11.774359,2.95222222 11.6161538,3.06333333 11.4369231,3.06333333 C11.4153846,3.06333333 11.3933333,3.06177778 11.3712821,3.05866667 C11.1669231,3.02733333 11.0307692,2.85866667 11.0666667,2.68155556 L11.5305128,0.401777778 C11.3564103,0.160666667 11.0476923,0 10.6951282,0 L9.30435897,0 C8.95230769,0 8.64384615,0.160666667 8.46948718,0.401777778 L8.93333333,2.68155556 C8.96948718,2.85866667 8.83307692,3.02755556 8.62871795,3.05866667 C8.60666667,3.062 8.58461538,3.06333333 8.56307692,3.06333333 C8.38384615,3.06333333 8.22512821,2.95244444 8.19358974,2.79422222 L7.7874359,0.799111111 C6.19282051,1.49955556 5.09974359,2.93266667 5.09974359,4.58777778 L4.90384615,4.58777778 C4.50666667,4.58777778 4.18512821,4.86666667 4.18512821,5.21088889 C4.18512821,5.55488889 4.50666667,5.83377778 4.90384615,5.83377778 Z" id="Shape"></path>
        </g>
    </g>
</svg>

<svg width="20" height="20" viewBox="0 0 20 20" xmlns="http://www.w3.org/2000/svg"><title>Group</title><g fill="#000" fill-rule="nonzero"><path d="M13.918 11.348c-.026 1.02-1.77 1.842-3.918 1.842s-3.892-.822-3.918-1.842c-3.286.26-5.86 2.654-5.86 5.57C.22 20.008 3.11 20 6.675 20h6.648c3.564 0 6.455.008 6.455-3.082 0-2.916-2.575-5.31-5.862-5.57z"/><path d="M10 11.172c-2.18 0-3.982-2.05-4.272-4.708h-.593c.33 3.03 2.38 5.362 4.865 5.362 2.483 0 4.535-2.333 4.865-5.362h-.593c-.29 2.66-2.09 4.708-4.272 4.708zM4.904 5.834h10.192c.397 0 .72-.28.72-.623 0-.343-.323-.622-.72-.622H14.9c0-1.655-1.094-3.088-2.687-3.79l-.407 1.996c-.032.158-.19.27-.37.27-.02 0-.043-.002-.065-.005-.203-.033-.34-.2-.303-.378l.464-2.28C11.357.162 11.05 0 10.696 0h-1.39c-.353 0-.66.16-.836.402l.463 2.28c.036.177-.1.346-.304.377l-.067.003c-.18 0-.338-.11-.37-.27L7.788.8C6.193 1.5 5.1 2.932 5.1 4.587h-.196c-.397 0-.72.28-.72.623 0 .345.323.624.72.624z"/></g></svg>
